X:1
T:Caladesi Island, 11.9.11.9 D
T:James McGranahan, 1887
T:Caladesi Island, 11.9.11.9 D
T:Public Domain
C:James McGranahan, 1887
Z:Public Domain
%%score ( 1 2 ) ( 3 4 )
L:1/8
M:4/4
K:Ab
V:1 treble 
V:2 treble 
V:3 bass 
V:4 bass 
V:1
 [CE][Ec] [Ec]>[DB] [CA]2 [CE]2 | [DF][FA][FA][DF] [CE]4 | [CA][CA][CA][CA] [FA][FA][=EG][FA] | %3
 [GB]8 | E[Ac] [Ac]>[EB] [EA]2 E2 | [DF][FA][FA][DF] [CE]4 | [CA][CA][CA][EA] [EA][EG] [Ec]>[DB] | %7
 [CA]8 | [DF][Fd] [Fd]>[Fd] [Fd]2 [DF]2 | [CE][Ec] [Ec]>[Ec] (E2 A2) | %10
 [Ac][GB][GB][GB] [GB][FB][Ac][A=d] | ([Ge]2 [Ac]2 [Bd]2 [DB]2) | [CE][Ec] [Ec]>[DB] [CA]2 [CE]2 | %13
 [DF][FA][FA][DF] [CE]4 | [CA][CA][CA][CA] [CA][EG] [Ec]>[DB] | [CA]8 |] %16
V:2
 x8 | x8 | x8 | x8 | E x4 E2 x | x8 | x8 | x8 | x8 | x4 c4 | x8 | x8 | x8 | x8 | x8 | x8 |] %16
V:3
 [A,,A,][A,,A,] [A,,A,]>[A,,E,] [A,,E,]2 [A,,A,]2 | [D,A,][D,A,][D,A,][D,A,] [A,,A,]4 | %2
 [F,A,][F,A,][F,A,][F,A,] [F,C][F,C][C,C][F,C] | [E,D]8 | [A,C][A,E] [A,E]>[A,D] [A,C]2 [C,A,]2 | %5
 [D,A,][D,A,][D,A,][D,A,] [A,,A,]4 | [A,,E,][A,,E,][A,,E,][C,A,] [E,C][E,B,] [E,A,]>[E,G,] | %7
 [A,,A,]8 | [D,A,][D,A,] [D,A,]>[D,A,] [D,A,]2 [D,A,]2 | [A,,A,][A,,A,] [A,,A,]>[A,,A,] (A,C E2) | %10
 [B,,E][B,,E][B,,E][B,,E] [B,,E][B,,=D][B,,E][B,,B,] | (B,2 A,2 G,4) | %12
 A,[A,,A,] [A,,A,]>[A,,E,] [A,,E,]2 [A,,A,]2 | [D,A,][D,A,][D,A,][D,A,] [A,,A,]4 | %14
 [F,A,][F,A,][F,A,][F,A,] [E,A,][E,B,] [E,G,]>[E,G,] | [A,,A,]8 |] %16
V:4
 x8 | x8 | x8 | x8 | x8 | x8 | x8 | x8 | x8 | x4 A,,4 | x8 | E,8 | A, x7 | x8 | x8 | x8 |] %16

